X: 6426
T: Castle, The
R: jig
M: 6/8
K: Adorian
|:cBA ~B3|AGE DB,G,|~A,3 EDB,|DEG AGE|
cBA BdB|AGE DB,G,|~A,3 EGE|DB,G, A,3:|
|:cBA ~a3|bag edB|GB/c/d ~g3|GBd cBA|
[1 cBA ~a3|bag edB|GB/c/d ~g3|GBd cBA:|
[2 cBc dcd|ede gab|age dBG|EFG ABA||

